X: 3
T: Good Morning To Your Nightcap
R: reel
M: 4/4
L: 1/8
K: Ador
(3Bcd | ~e3c dedB | cBcd eedg | e3c dedB | BAAG A2 (3Bcd |~e3c dedB | cBcd eedg | e2ga gedB |1 BAAG A2 :||2 BAAG AGED ||EAAc BGGB | cBcd eedg | eAAA BGG2 | BAAG AGED |EAAc BGGB | cBcd eedg | e2 ga gedB |1 BAAG AGED :||2 BAAG A2 ||


Tune 513	Setting 26694

